logo/google-analytics.svg

<?xml version="1.0" encoding="UTF-8"?>
<svg width="256px" height="284px" viewBox="0 0 256 284" version="1.1" xmlns="http://www.w3.org/2000/svg" xmlns:xlink="http://www.w3.org/1999/xlink" preserveAspectRatio="xMidYMid">
    <g>
        <path d="M256.003159,247.933017 C256.055907,258.030289 251.77298,267.664804 244.241349,274.390297 C236.709718,281.11579 226.653817,284.285366 216.626905,283.094249 C198.58347,280.424364 185.360959,264.722632 185.800619,246.488035 L185.800619,36.8452103 C185.364944,18.5907614 198.619678,2.88144681 216.687112,0.238996295 C226.704325,-0.933476157 236.743571,2.24455542 244.261279,8.9678962 C251.778988,15.691237 256.053811,25.3147619 256.003159,35.4002282 L256.003159,247.933017 Z" fill="#F9AB00"></path>
        <path d="M35.1010243,213.193238 C54.4867848,213.193238 70.2020487,228.908502 70.2020487,248.294263 C70.2020487,267.680023 54.4867848,283.395287 35.1010243,283.395287 C15.7152639,283.395287 0,267.680023 0,248.294263 C0,228.908502 15.7152639,213.193238 35.1010243,213.193238 Z M127.459466,106.806429 C107.981896,107.874068 92.8698765,124.212107 93.3217628,143.713681 L93.3217628,237.998765 C93.3217628,263.58699 104.580582,279.120548 121.077461,282.431965 C131.434034,284.530959 142.185473,281.860819 150.356699,275.160414 C158.527925,268.460009 163.252393,258.439904 163.222912,247.872809 L163.222912,142.088076 C163.240039,132.641687 159.462041,123.584285 152.737293,116.950107 C146.012546,110.315928 136.904752,106.661084 127.459466,106.806429 L127.459466,106.806429 Z" fill="#E37400"></path>
    </g>
</svg>

<svg viewBox="0 0 256 284" xmlns="http://www.w3.org/2000/svg"><path fill="#F9AB00" d="M256 247.93c.05 10.09-4.24 19.73-11.77 26.45 -7.54 6.72-17.59 9.89-27.62 8.7 -18.05-2.67-31.27-18.38-30.83-36.61V36.82c-.44-18.26 12.81-33.97 30.88-36.61 10.01-1.18 20.05 2 27.57 8.72 7.51 6.72 11.79 16.34 11.74 26.43v212.53Z"/><path fill="#E37400" d="M35.1 213.19c19.38 0 35.1 15.71 35.1 35.1 0 19.38-15.72 35.1-35.11 35.1s-35.11-15.72-35.11-35.11 15.71-35.11 35.1-35.11Zm92.35-106.39c-19.48 1.06-34.59 17.4-34.14 36.9v94.28c0 25.58 11.25 41.12 27.75 44.43 10.35 2.09 21.1-.58 29.27-7.28 8.17-6.71 12.89-16.73 12.86-27.29V142.05c.01-9.45-3.77-18.51-10.49-25.14 -6.73-6.64-15.84-10.29-25.28-10.15v0Z"/></svg>
